svgs/sharp-regular/martini-glass.svg

<svg xmlns="http://www.w3.org/2000/svg" viewBox="0 0 512 512"><!--! Font Awesome Pro 6.6.0 by @fontawesome - https://fontawesome.com License - https://fontawesome.com/license (Commercial License) Copyright 2024 Fonticons, Inc. --><path d="M0 0L0 48 222.1 270.1 232 280l0 184-80 0-24 0 0 48 24 0 104 0 104 0 24 0 0-48-24 0-80 0 0-184 9.9-9.9L512 48l0-48L464 0 48 0 0 0zM316.1 176L256 236.1 195.9 176l120.2 0zm48-48l-216.2 0-80-80 376.2 0-80 80z"/></svg>

<svg xmlns="http://www.w3.org/2000/svg" viewBox="0 0 512 512"><!--! Font Awesome Pro 6.4.0 by @fontawesome - https://fontawesome.com License - https://fontawesome.com/license (Commercial License) Copyright 2023 Fonticons, Inc. --><path d="M0 0V48L222.1 270.1 232 280V464H152 128v48h24H256 360h24V464H360 280V280l9.9-9.9L512 48V0H464 48 0zM316.1 176L256 236.1 195.9 176H316.1zm48-48H147.9l-80-80H444.1l-80 80z"/></svg>
